www/assets/icons/group.svg

<svg xmlns="http://www.w3.org/2000/svg" width="24" height="24" viewBox="0 0 24 24" fill='currentColor'><path d="M16 11c1.66 0 2.99-1.34 2.99-3S17.66 5 16 5s-3 1.34-3 3 1.34 3 3 3m-8 0c1.66 0 2.99-1.34 2.99-3S9.66 5 8 5 5 6.34 5 8s1.34 3 3 3m0 2c-2.33 0-7 1.17-7 3.5V19h14v-2.5c0-2.33-4.67-3.5-7-3.5m8 0c-.29 0-.62.02-.97.05 1.16.84 1.97 1.97 1.97 3.45V19h6v-2.5c0-2.33-4.67-3.5-7-3.5"/></svg>

<svg width="24" height="24" viewBox="0 0 24 24" xmlns="http://www.w3.org/2000/svg" fill='currentColor'><path d="M16 11C17.66 11 18.99 9.66 18.99 8C18.99 6.34 17.66 5 16 5C14.34 5 13 6.34 13 8C13 9.66 14.34 11 16 11ZM8 11C9.66 11 10.99 9.66 10.99 8C10.99 6.34 9.66 5 8 5C6.34 5 5 6.34 5 8C5 9.66 6.34 11 8 11ZM8 13C5.67 13 1 14.17 1 16.5V19H15V16.5C15 14.17 10.33 13 8 13ZM16 13C15.71 13 15.38 13.02 15.03 13.05C16.19 13.89 17 15.02 17 16.5V19H23V16.5C23 14.17 18.33 13 16 13Z"/></svg>
